src/assets/Outlined/D1RestOutlined.svg

<svg width="498" height="625" viewBox="0 0 498 625" fill="none" xmlns="http://www.w3.org/2000/svg">
<path fill-rule="evenodd" clip-rule="evenodd" d="M427.076 243.204C405.311 301.875 382.325 359.916 341.7 444.631L328.822 508.883C324.248 536.207 323.232 562.363 325.021 575.902C325.974 583.119 327.367 591.818 329.389 599.048C330.405 602.678 331.501 605.645 332.626 607.775C333.454 609.343 334.054 609.987 334.272 610.201C334.697 610.28 340.448 610.845 341.7 610.201C343.604 609.222 346.147 607.138 349.297 603.468C355.575 596.155 362.694 584.435 370.702 569.329C378.539 554.547 386.961 537.043 396.049 518.156L396.447 517.329C405.661 498.181 415.527 477.702 426.01 457.568L426.319 456.974L426.729 456.445C428.627 453.989 432.489 452.154 435.61 452.438C440.69 452.9 442.914 456.681 443.61 460.938C444.099 463.934 444.493 467.038 444.415 471.27C444.129 486.949 435.687 522.557 427.588 563.933C430.898 562.294 434.11 561.438 438.11 555.938C440.43 559.369 443.11 563.938 438.61 568.438C434.626 571.132 431.92 573.316 427.588 575.438C426.853 575.798 425.277 576.925 423.11 576.938C416.577 576.977 414.519 568.375 415.381 563.933C415.512 563.258 415.635 562.622 415.722 562.124L415.738 562.032L415.757 561.94C424.652 517.729 431.61 493.938 429.346 473.432C420.8 490.219 412.664 507.108 404.911 523.221L404.43 524.22C395.408 542.969 386.877 560.698 378.902 575.742C370.842 590.945 363.073 603.951 355.626 612.626C351.915 616.949 347.887 620.675 343.509 622.927C337.659 625.937 329.61 624.438 328.263 623.438C325.61 622.438 322.642 616.165 321.838 614.644C320.009 611.183 318.573 607.078 317.418 602.95C315.101 594.666 313.6 585.113 312.624 577.728C310.557 562.082 311.813 534.218 316.522 506.146V497.938L316.11 495.938C315.08 497.995 313.761 501.508 312.712 503.594L312.669 503.679L312.624 503.764C300.615 526.208 290.814 545.571 282.675 561.65C281.032 564.896 279.456 568.007 277.944 570.984C269.067 588.459 262.119 601.792 256.485 609.645C253.836 613.337 250.552 617.202 246.471 618.943C244.104 619.952 241.267 620.334 238.346 619.366C235.59 618.454 233.622 616.623 232.259 614.876C229.687 611.577 227.913 606.791 226.451 601.583C225.816 599.323 225.196 596.809 224.581 594.046C223.485 595.713 222.431 597.285 221.418 598.759C217.844 603.956 214.504 608.341 211.339 611.487C208.465 614.344 204.301 617.664 199.077 617.664C194.949 617.664 192.045 615.301 190.349 613.11C188.707 610.988 187.637 608.386 186.885 605.861C185.359 600.736 184.537 593.804 184.33 585.643C184.049 574.558 184.89 560.442 187.146 543.962C187.077 544.151 187.008 544.34 186.94 544.529C180.402 562.543 173.757 580.33 168.113 593.636C165.305 600.256 162.651 605.992 160.307 610.147C159.155 612.19 157.912 614.151 156.599 615.694C155.947 616.461 155.075 617.367 153.98 618.129C152.96 618.84 151.093 619.879 148.615 619.852C145.621 619.827 142.61 617.664 142.61 614.438C139.11 594.046 145.11 554.153 148.27 532.026C148.998 527.625 149.729 523.254 150.448 518.969C147.295 527.173 143.999 535.729 140.73 544.098C133.654 562.217 126.44 580.149 120.361 593.576C117.336 600.257 114.497 606.036 112.025 610.216C110.808 612.272 109.515 614.227 108.176 615.756C107.512 616.515 106.635 617.404 105.551 618.149C104.556 618.833 102.69 619.879 100.208 619.852C97.3874 619.829 95.1606 618.47 93.7447 616.844C92.5024 615.418 92.6096 613.438 92.6096 612.438C99.6266 579.582 104.61 545.438 108.176 511.938C108.11 508.438 106.14 509.938 105.81 510.68C103.41 516.082 100.912 521.727 98.3686 527.474C96.8767 530.845 95.3693 534.252 93.8571 537.665C85.8405 555.757 77.6905 574.028 71.0897 588.012C67.7957 594.99 64.838 601.007 62.447 605.435C61.2599 607.633 60.1397 609.577 59.1353 611.094C58.6378 611.845 58.0816 612.625 57.4851 613.324C57.0493 613.834 55.9683 615.068 54.3326 615.89C53.4523 616.332 51.8812 616.898 49.9004 616.62C47.7677 616.32 46.1879 615.19 45.2091 614.036C44.254 612.91 45.518 611.2 45.6096 610.938C58.7911 573.294 70.7331 533.741 74.6096 507.438C74.9044 505.438 73.1096 503.938 71.6096 506.938C62.9845 526.33 49.86 556.776 40.4047 574.602C34.9532 584.88 29.9143 594.021 25.9432 600.965C22.1434 607.61 18.9633 612.889 17.3857 614.856C15.9106 616.695 13.1203 618.907 9.20496 618.709C5.1131 618.503 2.47297 615.82 1.11798 613.515C-7.89048 591.438 39.1126 456.165 85.6096 451.938C88.2473 451.699 88.6096 451.938 90.5275 452.81C90.8586 452.822 87.9226 451.9 88.2426 451.938C89.731 451.996 91.2219 452.491 92.4981 453.445C93.9183 454.507 94.6132 455.79 94.934 456.525C95.2704 457.296 95.4167 457.973 95.4874 458.385C95.7199 459.74 95.5743 461.034 95.5197 461.52L95.5188 461.528C95.3631 462.912 95.0057 464.737 94.5698 466.713C93.6711 470.787 92.178 476.647 90.3146 483.608C86.9926 496.018 79.8813 530.258 75.1096 546.938C76.3623 544.11 85.8685 525.743 87.1096 522.938C94.7457 505.682 110.11 473.438 115.596 456.699C115.959 456.38 117.309 455.203 119.436 454.814C121.992 454.346 124.464 455.195 126.18 456.835C127.541 458.136 128.081 459.591 128.289 460.236C128.726 461.591 128.776 462.905 128.789 463.58C128.819 465.18 128.642 467.183 128.395 469.259C127.885 473.54 126.89 479.556 125.625 486.583C124.057 495.292 122.015 505.874 119.846 517.112C118.512 524.024 117.129 531.185 115.78 538.311C112.589 555.167 109.573 571.879 107.693 585.17C113.387 572.393 122.932 555.408 129.61 538.311C133.571 528.17 137.959 516.943 141.61 507.438C144.365 500.266 151.61 479.438 159.136 457.995C159.412 457.585 159.893 456.924 160.598 456.28C161.16 455.765 162.61 454.938 163.11 454.938C166.65 454.563 168.62 456.36 169.766 457.876C170.716 459.134 171.065 460.387 171.198 460.923C171.491 462.107 171.527 463.274 171.532 463.986C171.539 464.831 171.497 465.756 171.431 466.704C171.171 470.42 170.404 476.106 169.372 482.876C168.001 491.868 166.077 503.304 164.009 515.595C162.942 521.938 161.685 527.858 160.598 534.438C157.63 552.394 157.259 570.498 155.586 584.72C160.782 572.185 169.576 555.562 175.61 538.938C178.661 530.53 181.652 522.699 184.61 514.438C187.927 505.17 190.786 495.832 193.61 488.11C196.298 480.757 197.296 474.323 199.325 469.259C201.233 464.496 202.139 460.359 203.663 458.055C204.031 457.498 204.472 456.884 204.985 456.304C205.423 455.809 206.292 454.897 207.585 454.201C208.972 453.455 210.475 452.2 213.581 453.794C216.244 455.161 217.199 457.506 217.498 458.369C218.125 460.179 218.078 462.042 218.046 462.903C218.004 464.075 217.866 465.38 217.685 466.705C216.971 471.936 215.248 479.85 213.354 487.81C211.438 495.865 209.27 504.287 207.585 510.68C206.742 513.88 206.123 516.537 205.61 518.438C198.68 544.079 194.34 574.445 200.996 600.615C203.099 598.473 209.282 592.778 212.61 587.938C216.011 582.991 216.927 581.145 221.418 573.938C222.11 545.938 226.451 517.543 233.61 495.438C238.01 483.167 243.24 472.471 248.459 465.012C251.033 461.331 253.409 458.516 256.485 456.28C259.292 454.24 263.116 452.074 268.11 453.794C272.243 454.929 274.732 456.92 276.556 460.32C278.318 463.605 278.98 467.405 279.137 471.033C279.451 478.303 277.814 487.296 275.207 496.551C269.947 515.227 260.025 537.399 249.559 554.153C246.181 559.558 243.02 564.669 240.059 569.455C238.776 571.528 237.531 573.541 236.323 575.49C236.454 576.415 236.598 577.335 236.755 578.248C238.214 586.425 239.561 592.786 240.893 597.529C241.563 599.916 245.511 602.475 246.039 603.766C246.496 603.214 247.026 602.53 247.632 601.686C252.445 594.977 258.825 582.851 267.906 564.975C269.406 562.023 270.972 558.928 272.61 555.693C280.74 539.632 290.612 520.128 302.688 497.557C312.901 477.235 322.188 458.341 330.698 440.622L339.667 401.193L360.949 306.003L397.709 175.048C418.013 96.9386 459.936 30.942 468.372 17.6614C468.657 17.2135 468.903 16.8255 469.11 16.4991C472.516 11.1081 474.465 7.31792 478.11 4.43819C481.372 1.86037 486.61 -1.56191 490.903 0.784091C493.49 2.49765 495.006 5.0065 495.916 7.28567C496.841 9.60075 497.368 12.2353 497.645 15.0001C498.201 20.5299 497.865 27.7165 496.661 36.4879C491.855 71.4937 472.331 137.671 427.076 243.204ZM352.61 388.938C378.61 336.438 400.247 282.552 416.544 238.614L416.61 238.438L416.684 238.266C461.876 132.899 480.744 68.1937 485.267 35.2505C486.18 28.6013 485.267 16.7192 483.11 15.0001C481.649 16.597 479.465 20.2368 477.45 23.4256C477.249 23.7433 477.012 24.1178 476.739 24.5477C468.429 37.6344 427.558 102.003 407.869 177.804L407.85 177.875L371.159 308.584L352.61 388.938ZM233.61 558.438C234 557.813 239.423 549.438 241.61 545.938C251.355 530.339 257.251 509.689 262.11 492.438C264.562 483.732 264.363 476.587 264.151 471.68C264.076 469.944 263.841 468.792 263.611 468.08C262.478 469.032 260.927 470.726 259.074 473.374C254.865 479.392 249.231 487.944 245.11 499.438C239.994 513.705 234.891 541.711 233.61 558.438ZM264.733 467.302C264.732 467.304 264.706 467.318 264.655 467.336C264.708 467.309 264.733 467.3 264.733 467.302ZM74.3996 467.688C72.9546 468.469 71.4312 469.489 69.789 470.836C63.1803 476.257 54.3729 487.257 42.7765 510.193C25.0501 550.34 12.1096 580.438 11.5351 597.438C17.3857 592.438 24.5646 576.007 29.1096 567.438C39.9059 547.084 50.3578 522.399 59.2024 501.496L59.2273 501.438L59.2532 501.379C60.9782 497.489 62.5647 493.888 64.0292 490.565C68.4421 480.551 71.7478 473.049 74.3996 467.688Z" fill="white"/>
</svg>

4.3k → 3.28k 76.33%
<svg xmlns="http://www.w3.org/2000/svg" width="498" height="625" fill="none"><path fill="#fff" fill-rule="evenodd" d="M427.076 243.204c-21.765 58.671-44.751 116.712-85.376 201.427l-12.878 64.252c-4.574 27.324-5.59 53.48-3.801 67.019.953 7.217 2.346 15.916 4.368 23.146 1.016 3.63 2.112 6.597 3.237 8.727.828 1.568 1.428 2.212 1.646 2.426.425.079 6.176.644 7.428 0 1.904-.979 4.447-3.063 7.597-6.733 6.278-7.313 13.397-19.033 21.405-34.139 7.837-14.782 16.259-32.286 25.347-51.173l.398-.827c9.214-19.148 19.08-39.627 29.563-59.761l.309-.594.41-.529c1.898-2.456 5.76-4.291 8.881-4.007 5.08.462 7.304 4.243 8 8.5.489 2.996.883 6.1.805 10.332-.286 15.679-8.728 51.287-16.827 92.663 3.31-1.639 6.522-2.495 10.522-7.995 2.32 3.431 5 8 .5 12.5-3.984 2.694-6.69 4.878-11.022 7-.735.36-2.311 1.487-4.478 1.5-6.533.039-8.591-8.563-7.729-13.005.131-.675.254-1.311.341-1.809l.016-.092.019-.092c8.895-44.211 15.853-68.002 13.589-88.508-8.546 16.787-16.682 33.676-24.435 49.789l-.481.999c-9.022 18.749-17.553 36.478-25.528 51.522-8.06 15.203-15.829 28.209-23.276 36.884-3.711 4.323-7.739 8.049-12.117 10.301-5.85 3.01-13.899 1.511-15.246.511-2.653-1-5.621-7.273-6.425-8.794-1.829-3.461-3.265-7.566-4.42-11.694-2.317-8.284-3.818-17.837-4.794-25.222-2.067-15.646-.811-43.51 3.898-71.582v-8.208l-.412-2c-1.03 2.057-2.349 5.57-3.398 7.656l-.043.085-.045.085c-12.009 22.444-21.81 41.807-29.949 57.886a7653.595 7653.595 0 0 1-4.731 9.334c-8.877 17.475-15.825 30.808-21.459 38.661-2.649 3.692-5.933 7.557-10.014 9.298-2.367 1.009-5.204 1.391-8.125.423-2.756-.912-4.724-2.743-6.087-4.49-2.572-3.299-4.346-8.085-5.808-13.293a142.744 142.744 0 0 1-1.87-7.537 277.776 277.776 0 0 1-3.163 4.713c-3.574 5.197-6.914 9.582-10.079 12.728-2.874 2.857-7.038 6.177-12.262 6.177-4.128 0-7.032-2.363-8.728-4.554-1.642-2.122-2.712-4.724-3.464-7.249-1.526-5.125-2.348-12.057-2.555-20.218-.281-11.085.56-25.201 2.816-41.681l-.206.567c-6.538 18.014-13.183 35.801-18.827 49.107-2.808 6.62-5.462 12.356-7.806 16.511-1.152 2.043-2.395 4.004-3.708 5.547-.652.767-1.524 1.673-2.619 2.435-1.02.711-2.887 1.75-5.365 1.723-2.994-.025-6.005-2.188-6.005-5.414-3.5-20.392 2.5-60.285 5.66-82.412.728-4.401 1.459-8.772 2.178-13.057a4970.74 4970.74 0 0 1-9.718 25.129c-7.076 18.119-14.29 36.051-20.369 49.478-3.025 6.681-5.864 12.46-8.336 16.64-1.217 2.056-2.51 4.011-3.849 5.54-.664.759-1.541 1.648-2.625 2.393-.995.684-2.861 1.73-5.343 1.703-2.82-.023-5.047-1.382-6.463-3.008-1.243-1.426-1.135-3.406-1.135-4.406 7.017-32.856 12-67 15.566-100.5-.066-3.5-2.036-2-2.366-1.258-2.4 5.402-4.898 11.047-7.441 16.794l-4.512 10.191c-8.016 18.092-16.166 36.363-22.767 50.347-3.294 6.978-6.252 12.995-8.643 17.423-1.187 2.198-2.307 4.142-3.312 5.659a23.234 23.234 0 0 1-1.65 2.23c-.436.51-1.517 1.744-3.152 2.566a7.525 7.525 0 0 1-9.123-1.854c-.956-1.126.308-2.836.4-3.098 13.181-37.644 25.123-77.197 29-103.5.294-2-1.5-3.5-3-.5-8.626 19.392-21.75 49.838-31.205 67.664-5.452 10.278-10.49 19.419-14.462 26.363-3.8 6.645-6.98 11.924-8.557 13.891-1.475 1.839-4.266 4.051-8.181 3.853-4.092-.206-6.732-2.889-8.087-5.194-9.008-22.077 37.995-157.35 84.492-161.577 2.637-.239 3 0 4.918.872.33.012-2.605-.91-2.285-.872a7.59 7.59 0 0 1 4.255 1.507 7.676 7.676 0 0 1 2.436 3.08c.336.771.483 1.448.553 1.86.233 1.355.087 2.649.033 3.135l-.001.008c-.156 1.384-.513 3.209-.95 5.185-.898 4.074-2.391 9.934-4.254 16.895-3.322 12.41-10.434 46.65-15.205 63.33 1.252-2.828 10.758-21.195 12-24 7.636-17.256 23-49.5 28.486-66.239a8.01 8.01 0 0 1 3.84-1.885 7.73 7.73 0 0 1 6.744 2.021 8.147 8.147 0 0 1 2.109 3.401c.437 1.355.487 2.669.5 3.344.03 1.6-.147 3.603-.394 5.679-.51 4.281-1.505 10.297-2.77 17.324-1.568 8.709-3.61 19.291-5.779 30.529-1.334 6.912-2.717 14.073-4.066 21.199-3.191 16.856-6.207 33.568-8.087 46.859 5.694-12.777 15.239-29.762 21.917-46.859 3.961-10.141 8.349-21.368 12-30.873 2.755-7.172 10-28 17.526-49.443a9.503 9.503 0 0 1 1.462-1.715c.562-.515 2.012-1.342 2.512-1.342 3.54-.375 5.51 1.422 6.656 2.938a8.395 8.395 0 0 1 1.432 3.047c.293 1.184.329 2.351.334 3.063.007.845-.035 1.77-.101 2.718-.26 3.716-1.027 9.402-2.059 16.172-1.371 8.992-3.295 20.428-5.363 32.719-1.067 6.343-2.324 12.263-3.411 18.843-2.968 17.956-3.339 36.06-5.012 50.282 5.196-12.535 13.99-29.158 20.024-45.782 3.051-8.408 6.042-16.239 9-24.5 3.317-9.268 6.176-18.606 9-26.328 2.688-7.353 3.686-13.787 5.715-18.851 1.908-4.763 2.814-8.9 4.338-11.204a15.75 15.75 0 0 1 1.322-1.751c.438-.495 1.307-1.407 2.6-2.103 1.387-.746 2.89-2.001 5.996-.407 2.663 1.367 3.618 3.712 3.917 4.575.627 1.81.58 3.673.548 4.534-.042 1.172-.18 2.477-.361 3.802-.714 5.231-2.437 13.145-4.331 21.105-1.916 8.055-4.084 16.477-5.769 22.87-.843 3.2-1.462 5.857-1.975 7.758-6.93 25.641-11.27 56.007-4.614 82.177 2.103-2.142 8.286-7.837 11.614-12.677 3.401-4.947 4.317-6.793 8.808-14 .692-28 5.033-56.395 12.192-78.5 4.4-12.271 9.63-22.967 14.849-30.426 2.574-3.681 4.95-6.496 8.026-8.732 2.807-2.04 6.631-4.206 11.625-2.486 4.133 1.135 6.622 3.126 8.446 6.526 1.762 3.285 2.424 7.085 2.581 10.713.314 7.27-1.323 16.263-3.93 25.518-5.26 18.676-15.182 40.848-25.648 57.602-3.378 5.405-6.539 10.516-9.5 15.302-1.283 2.073-2.528 4.086-3.736 6.035.131.925.275 1.845.432 2.758 1.459 8.177 2.806 14.538 4.138 19.281.67 2.387 4.618 4.946 5.146 6.237.457-.552.987-1.236 1.593-2.08 4.813-6.709 11.193-18.835 20.274-36.711 1.5-2.952 3.066-6.047 4.704-9.282 8.13-16.061 18.002-35.565 30.078-58.136 10.213-20.322 19.5-39.216 28.01-56.935l8.969-39.429 21.282-95.19 36.76-130.955c20.304-78.11 62.227-144.106 70.663-157.387l.738-1.162c3.406-5.39 5.355-9.181 9-12.06 3.262-2.579 8.5-6 12.793-3.655 2.587 1.714 4.103 4.223 5.013 6.502.925 2.315 1.452 4.95 1.729 7.714.556 5.53.22 12.716-.984 21.488-4.806 35.006-24.33 101.183-69.585 206.716ZM352.61 388.938c26-52.5 47.637-106.386 63.934-150.324l.066-.176.074-.172c45.192-105.367 64.06-170.072 68.583-203.015.913-6.65 0-18.532-2.157-20.25-1.461 1.596-3.645 5.236-5.66 8.425l-.711 1.122c-8.31 13.086-49.181 77.455-68.87 153.256l-.019.071-36.691 130.709-18.549 80.354Zm-119 169.5c.39-.625 5.813-9 8-12.5 9.745-15.599 15.641-36.249 20.5-53.5 2.452-8.706 2.253-15.851 2.041-20.758-.075-1.736-.31-2.888-.54-3.6-1.133.952-2.684 2.646-4.537 5.294-4.209 6.018-9.843 14.57-13.964 26.064-5.116 14.267-10.219 42.273-11.5 59Zm31.123-91.136a.36.36 0 0 1-.078.034.323.323 0 0 1 .078-.034Zm-190.333.386c-1.445.781-2.969 1.801-4.611 3.148-6.609 5.421-15.416 16.421-27.013 39.357-17.726 40.147-30.666 70.245-31.24 87.245 5.85-5 13.029-21.431 17.574-30 10.796-20.354 21.248-45.039 30.092-65.942l.025-.058.026-.059c1.725-3.89 3.312-7.491 4.776-10.814 4.413-10.014 7.719-17.516 10.37-22.877Z" clip-rule="evenodd"/></svg>
